!!!!SEGMENT: pl-kk--kk-i-38--012_lasso-orlando-di--deus-noster-refugium.krn
!!!cenid: 16xx:1262
!!!COM: Lasso, Orlando di
!!!COM-rismID: pe506
!!!CDT: ~1532-1594/06/14
!!!CNT: French-Flemish
!!!OTL: Deus noster refugium
!!!PDT:
!!!AGN: Sacred
!!!SMS-siglum: PL-Kk
!!!SMS-shelfmark: Kk.I.38
!!!SMS-shelfwork: 012 W
!!!SMS-variant:
!!!SMS-altvar:
!!!NIFC-rismSourceID: 1001153210
!!!NIFC-rismChildID: 1001154398
!!!NIFC-islandoraID: pl-kk:2701
!!!URL-pdf-islandora: https://repozytorium.nifc.pl/islandora/object/pl-kk%3A2701/datastream/PDF/view
!!!URL-scan: https://polish.musicsources.pl/pl/lokalizacje/galeria/rekopisy/5992 @EN{Scan on Polish Music Sources Website} @PL{Skany w portalu Dziedzictwo Muzyki Polskiej w otwartym dostępie}
!!!IIIF:
!!!ONB-nifc: Lib. 2. Fol. 32. 2da parte (jeśli występuje), należy do utworu tytułowego
!!!AIN: 1 empty
!!!key:
**kern	**text
*Iempty	*
*I"Baſso Ripieno.	*
*I'B rip	*
*clefF4	*
*k[b-]	*
*F:	*
*M2/1	*
*met(C|)	*
=1-	=1-
!LO:TX:a:t=Lib. 2. Fol. 32.	!
!LO:TX:b:t=Deus noſter	!
!LO:TX:t=P:problem=przy kluczu BB- B-	!
00r	.
=2-	=2-
.	.
=3-	=3-
!LO:TX:t=P:problem=kreska pseudotaktowa	!
00r	.
=4-	=4-
.	.
=5-	=5-
2r	.
*2\right	*
!LO:TX:t=P:problem=kreska pseudotaktowa	!
2A\	Re-
2.A\	-fu-
4G\	-gi-
=6-	=6-
2F\	-um
2E\	et
1D	vir-
=7-	=7-
!LO:TX:t=P:problem=kreska pseudotaktowa	!
1C	-t(us)
0r	.
=8-	=8-
.	.
1.BB-	DE-
=9-	=9-
.	.
2F\	-(us)
1C	no-
=10-	=10-
2D\	-ſter
!LO:TX:t=P:problem=kreska pseudotaktowa	!
2A\	re-
2.A\	-fu-
4G\	-gi-
=11-	=11-
2F\	-u(m)
2E\	et
1D	Vir-
=12-	=12-
!LO:TX:t=P:problem=kreska pseudotaktowa	!
1C	-t(us)
0r	.
=13-	=13-
.	.
!LO:TX:t=P:problem=kreska pseudotaktowa	!
1r	.
=14-	=14-
2r	.
2F\	re-
2.F\	-fu-
4E\	-gi-
=15-	=15-
2D/	-um
!LO:TX:t=P:problem=kreska pseudotaktowa	!
2C/	et
1BB-	Vir-
=16-	=16-
2AA,</	-t(us);
!LO:TX:t=P:problem=kreska pseudotaktowa	!
2A\	re-
2.A\	-fu-
4G\	-gi-
=17-	=17-
2F,<\	-um
!LO:TX:t=P:problem=kreska pseudotaktowa	!
2E\	et
!LO:LB:g=original	!
1D	Vir-
=18-	=18-
!LO:TX:t=P:problem=kreska pseudotaktowa	!
1C	-t(us);
!LO:TX:t=P:problem=kreska pseudotaktowa	!
1r	.
=19-	=19-
2F\	Ad-
4F\	-ju-
4E\	.
4D/	.
4C/	.
!LO:TX:t=P:problem=kreska pseudotaktowa	!
2BB-/	.
=20-	=20-
2F,<\	-tor
2F\	ad-
4F\	-ju-
4G\	.
4A\	.
!LO:TX:t=P:problem=kreska pseudotaktowa	!
4B-\	.
=21-	=21-
1c	.
!LO:TX:t=P:problem=kreska pseudotaktowa	!
1C,<	-tor,
=22-	=22-
00r	.
=23-	=23-
.	.
=24-	=24-
2r	.
!LO:TX:t=P:problem=kreska pseudotaktowa	!
2D/	in
2D/	tri-
2C/	-bu-
=25-	=25-
2BBn/	-la-
!LO:TX:t=P:problem=kreska pseudotaktowa	!
2C/	-ti-
2.AA/	-o-
4AA/	-ni-
=26-	=26-
2FF,</	-b(us)
2F\	in
2F\	tri-
!LO:TX:t=P:problem=kreska pseudotaktowa	!
2E-X\	-bu-
=27-	=27-
2.D/	-la-
4C/	-ti-
2BB-/	-o-
!LO:TX:t=P:problem=kreska pseudotaktowa	!
2C/	-ni-
=28-	=28-
2GG,</	-b(us),
2G\	in
2Eny\	tri-
*custos:C	*
!LO:TX:t=P:problem=kreska pseudotaktowa	!
2F\	-bu-
!LO:LB:g=original	!
=29-	=29-
2C/	-la-
2GG/	-ti-
2.AA/	-o-
4BB-/	.
=30-	=30-
2C/	.
2GG/	.
2.AA/	-ni-
4BB-/	.
=31-	=31-
!LO:TX:t=P:problem=kreska pseudotaktowa	!
1C	-b(us)
2r	.
2F\	quae
=32-	=32-
2D/	in-
2BB-/	-ve-
0F	-ne-
=33-	=33-
.	.
!LO:TX:t=P:problem=kreska pseudotaktowa	!
0F	-runt
=34-	=34-
.	.
1r	.
=35-	=35-
*	*ij
1C	quae
2AA/	in-
2FF/	-ve-
=36-	=36-
1C	-ne-
!LO:TX:t=P:problem=kreska pseudotaktowa	!
1F	-runt
*	*Xij
=37-	=37-
2r	.
2F\	quae
2D\	in-
!LO:TX:t=P:problem=kreska pseudotaktowa	!
2BB-/	-ve-
=38-	=38-
2F\	-ne-
2C,</	-runt
2.D/	nos
8C/L	.
8BB-/J	.
=39-	=39-
!LO:TX:t=P:problem=kreska pseudotaktowa	!
1AA	.
!LO:TX:t=P:problem=kreska pseudotaktowa	!
0r	.
=40-	=40-
.	.
1D	quae
=41-	=41-
2BB-/	in-
2GG/	-ve-
1D	-ne-
=42-	=42-
*custos:F	*
!LO:TX:t=P:problem=kreska pseudotaktowa	!
1C	-runt
!LO:LB:g=original	!
2F,<\	nos
(4A\	ni-
4G\	.
=43-	=43-
4F\	.
4E\)	.
2D\	.
!LO:TX:t=P:problem=kreska pseudotaktowa	!
0C	-mis
=44-	=44-
.	.
!LO:TX:t=P:problem=kreska pseudotaktowa	!
1r	.
=45-	=45-
2A\	quae
!LO:TX:t=P:problem=kreska pseudotaktowa	!
2F\	in-
2D\	-ve-
1A\	-ne-
=46-	=46-
.	.
!LO:TX:t=P:problem=kreska pseudotaktowa	!
2D,<\	-runt
!LO:TX:t=P:problem=kreska pseudotaktowa	!
1r	.
=47-	=47-
1C	quae
2AA/	in-
2FF/	-ve-
=48-	=48-
!LO:TX:t=P:problem=kreska pseudotaktowa	!
1C	-ne-
2FF/	-runt
2AA/	nos
=49-	=49-
0BB-	ni-
=50-	=50-
0Fl;	-mis.
==	==
*-	*-
!!!RDF**kern: < = below
!!!RDF**kern: l = terminal long
!!!ENC: Andrzej Kubiczek
!!!END: 2021-07-29
!!!ENC: Anastazja Marusiak
!!!END: 2021-07-01
!!!YEC: Copyright 2022 Narodowy Instytut Fryderyka Chopina (https://polishscores.org)
!!!YEM: License CC-BY-4.0 (https://creativecommons.org/licenses/by/4.0)
